symbols/web/healing/materialsymbolsoutlined/healing_wght500fill1_48px.svg

<svg xmlns="http://www.w3.org/2000/svg" height="48" width="48"><path d="m10.55 43.25-5.8-5.8Q3.7 36.45 3.7 35q0-1.45 1.05-2.45L32.8 4.5q1.05-1 2.475-.975Q36.7 3.55 37.7 4.5l5.8 5.8q.95 1 .975 2.425.025 1.425-.975 2.475L15.45 43.25q-1 1.05-2.475 1.05t-2.425-1.05Zm14.65-7.6 10.7-10.7 7.6 7.6q1 1 1 2.45 0 1.45-1 2.45l-6.05 6.05q-.95.95-2.3.825-1.35-.125-2.35-1.075Zm-1.05-5.85q.85 0 1.425-.575.575-.575.575-1.425 0-.9-.575-1.475-.575-.575-1.425-.575-.85 0-1.425.575-.575.575-.575 1.425 0 .9.575 1.475.575.575 1.425.575Zm-3.95-3.95q.9 0 1.475-.575.575-.575.575-1.425 0-.85-.575-1.425-.575-.575-1.425-.575-.9 0-1.475.575Q18.2 23 18.2 23.85q0 .85.575 1.425.575.575 1.425.575Zm7.8 0q.9 0 1.475-.575.575-.575.575-1.425 0-.85-.575-1.425-.575-.575-1.425-.575-.9 0-1.475.575Q26 23 26 23.85q0 .85.575 1.425.575.575 1.425.575ZM12.45 22.9 4.6 15.1q-.95-1-1-2.3-.05-1.3.9-2.25l6.05-6.05q1-1 2.425-1 1.425 0 2.475 1l7.6 7.6Zm11.7-.9q.85 0 1.425-.575.575-.575.575-1.425 0-.9-.575-1.475-.575-.575-1.425-.575-.85 0-1.425.575-.575.575-.575 1.425 0 .9.575 1.475Q23.3 22 24.15 22Z"/></svg>

<svg xmlns="http://www.w3.org/2000/svg" height="48" width="48"><path d="M10.55 43.25 4.75 37.45Q3.7 36.45 3.7 35Q3.7 33.55 4.75 32.55L32.8 4.5Q33.85 3.5 35.275 3.525Q36.7 3.55 37.7 4.5L43.5 10.3Q44.45 11.3 44.475 12.725Q44.5 14.15 43.5 15.2L15.45 43.25Q14.45 44.3 12.975 44.3Q11.5 44.3 10.55 43.25ZM25.2 35.65 35.9 24.95 43.5 32.55Q44.5 33.55 44.5 35Q44.5 36.45 43.5 37.45L37.45 43.5Q36.5 44.45 35.15 44.325Q33.8 44.2 32.8 43.25ZM24.15 29.8Q25 29.8 25.575 29.225Q26.15 28.65 26.15 27.8Q26.15 26.9 25.575 26.325Q25 25.75 24.15 25.75Q23.3 25.75 22.725 26.325Q22.15 26.9 22.15 27.75Q22.15 28.65 22.725 29.225Q23.3 29.8 24.15 29.8ZM20.2 25.85Q21.1 25.85 21.675 25.275Q22.25 24.7 22.25 23.85Q22.25 23 21.675 22.425Q21.1 21.85 20.25 21.85Q19.35 21.85 18.775 22.425Q18.2 23 18.2 23.85Q18.2 24.7 18.775 25.275Q19.35 25.85 20.2 25.85ZM28 25.85Q28.9 25.85 29.475 25.275Q30.05 24.7 30.05 23.85Q30.05 23 29.475 22.425Q28.9 21.85 28.05 21.85Q27.15 21.85 26.575 22.425Q26 23 26 23.85Q26 24.7 26.575 25.275Q27.15 25.85 28 25.85ZM12.45 22.9 4.6 15.1Q3.65 14.1 3.6 12.8Q3.55 11.5 4.5 10.55L10.55 4.5Q11.55 3.5 12.975 3.5Q14.4 3.5 15.45 4.5L23.05 12.1ZM24.15 22Q25 22 25.575 21.425Q26.15 20.85 26.15 20Q26.15 19.1 25.575 18.525Q25 17.95 24.15 17.95Q23.3 17.95 22.725 18.525Q22.15 19.1 22.15 19.95Q22.15 20.85 22.725 21.425Q23.3 22 24.15 22Z"/></svg>
